X: 40452
T: Tom Sullivan's
R: polka
M: 2/4
K: Gmajor
|:G>A|Bc de|fd dc|dg gf|g2 ga|
bg ag|fd d>e|fd c/B/A|G2:|
g>a|b2 ag|fd d/e/g/a/|bc’/b/ af|g2 g>a|
bc’/b/ ag|fd d>e|fd cA|G2 d/e/g/a/|
bg a>g|fd g>a|bg ab|c’2 ba|
b2 ag|f2 d>g|f/e/d cA|G2||

